!!!SOCIAL_FUNCTION:	songs used in the treatment of the sick
!!!PDT:	1929
!!!OTL: No_84_I_Am_Going_to_See_the_Land.krn
!!!REG: Southwest
!!!LANG: Non-Tone
!!!LING_GROUP: Uto-Aztecan
**kern
*staff1
=
*clefF4
*k[b-e-]
*M3/4
8.F\L
16F\Jk
=1
8.c\L
16Bn\Jk
4c\
12B-\L
12G\
12G\J
=2||
*M2/4
12B-\L
12G\
12F\J
8.F\L
16F\Jk
=3||
*M5/8
2F\
8F\
=4||
*M3/4
12F\L
12F\
12F\J
8F\
8r
12G\L
12F\
12F\J
=5
8.B-\L
16B-\Jk
8.G\L
16F\Jk
12G\L
12F\
12F\J
=6||
*M5/8
2F\
8F\
=7||
*M3/4
12F\L
12F\
12F\J
8F\
8r
16F\LL
16D\
16G\
16F\JJ
=8||
*M2/4
4F\
8.F\L
16D\Jk
=9
4F\
12F\L
12F\
12D\J
=10
16F\LK
8.F\J
8.F\L
16F\Jk
=11||
4F\
4r
==:|!
*-
